public/img/tech-stack/next-js.svg

<svg width="1024" height="1024" fill="none" xmlns="http://www.w3.org/2000/svg"><path d="M478.503.8c-2.2.2-9.199.8999-15.498 1.3998C317.719 15.2985 181.632 93.691 95.4407 214.179 47.4453 281.173 16.7483 357.165 5.1495 437.657 1.0499 465.755.5499 474.054.5499 512.15s.5 46.396 4.5996 74.493C32.9468 778.724 169.633 940.108 355.015 999.902c33.197 10.698 68.194 17.998 107.99 22.398 15.498 1.7 82.492 1.7 97.99 0 68.693-7.6 126.888-24.597 184.282-53.895 8.799-4.499 10.499-5.699 9.299-6.699-.8-.6-38.296-50.895-83.292-111.689l-81.792-110.489-102.49-151.685c-56.394-83.392-102.79-151.586-103.19-151.586-.399-.1-.799 67.294-.999 149.586-.3 144.086-.4 149.885-2.2 153.285-2.6 4.899-4.6 6.899-8.799 9.099-3.2 1.6-6 1.9-21.098 1.9h-17.299l-4.599-2.9c-3-1.9-5.2-4.399-6.699-7.299l-2.1-4.5.2-200.48.3-200.581 3.099-3.899c1.6-2.1 5-4.8 7.4-6.1 4.099-1.999 5.699-2.199 22.997-2.199 20.398 0 23.798.8 29.098 6.599 1.499 1.6 56.994 85.192 123.388 185.882 66.393 100.69 157.184 238.177 201.78 305.67l80.992 122.688 4.1-2.7c36.296-23.597 74.692-57.194 105.089-92.191 64.694-74.292 106.388-164.884 120.388-261.474 4.1-28.097 4.6-36.397 4.6-74.493s-.5-46.395-4.6-74.493C991.053 245.576 854.367 84.1918 668.985 24.3977c-32.697-10.599-67.494-17.8983-106.49-22.2979C552.896 1.1 486.802 0 478.503.8Zm209.38 309.37c4.799 2.4 8.699 6.999 10.099 11.799.8 2.599 1 58.194.8 183.482l-.3 179.782-31.697-48.595-31.797-48.595V457.355c0-84.491.4-131.987 1-134.287 1.6-5.599 5.099-9.999 9.899-12.598 4.1-2.1 5.599-2.3 21.298-2.3 14.798 0 17.398.2 20.698 2Z" fill="#fff"/><path d="M784.273 945.208c-3.499 2.199-4.599 3.699-1.499 1.999 2.199-1.299 5.799-3.999 5.199-4.099-.3 0-2 1-3.7 2.1Zm-6.899 4.499c-1.8 1.4-1.8 1.5.4.4 1.2-.6 2.2-1.3 2.2-1.5 0-.8-.5-.6-2.6 1.1Zm-4.999 3c-1.8 1.4-1.8 1.5.4.4 1.199-.6 2.199-1.3 2.199-1.5 0-.8-.5-.6-2.599 1.1Zm-5 3c-1.8 1.4-1.8 1.5.4.4 1.2-.6 2.2-1.3 2.2-1.5 0-.8-.5-.6-2.6 1.1Zm-7.599 3.999c-3.8 2-3.6 2.8.2.9 1.7-.9 3-1.8 3-2 0-.7-.1-.6-3.2 1.1Z" fill="#fff"/></svg>

<svg width="1024" height="1024" viewBox="0 0 1024 1024" fill="none" xmlns="http://www.w3.org/2000/svg">
<path d="M478.503 0.799965C476.303 0.999945 469.304 1.69988 463.005 2.19983C317.719 15.2985 181.632 93.6909 95.4407 214.179C47.4453 281.173 16.7483 357.165 5.14948 437.657C1.04988 465.755 0.549927 474.054 0.549927 512.15C0.549927 550.246 1.04988 558.546 5.14948 586.643C32.9468 778.724 169.633 940.108 355.015 999.902C388.212 1010.6 423.209 1017.9 463.005 1022.3C478.503 1024 545.497 1024 560.995 1022.3C629.688 1014.7 687.883 997.703 745.277 968.405C754.076 963.906 755.776 962.706 754.576 961.706C753.776 961.106 716.28 910.811 671.284 850.017L589.492 739.528L487.002 587.843C430.608 504.451 384.212 436.257 383.812 436.257C383.413 436.157 383.013 503.551 382.813 585.843C382.513 729.929 382.413 735.728 380.613 739.128C378.013 744.027 376.013 746.027 371.814 748.227C368.614 749.827 365.814 750.127 350.716 750.127H333.417L328.818 747.227C325.818 745.327 323.618 742.828 322.119 739.928L320.019 735.428L320.219 534.948L320.519 334.367L323.618 330.468C325.218 328.368 328.618 325.668 331.018 324.368C335.117 322.369 336.717 322.169 354.015 322.169C374.413 322.169 377.813 322.969 383.113 328.768C384.612 330.368 440.107 413.96 506.501 514.65C572.894 615.34 663.685 752.827 708.281 820.32L789.273 943.008L793.373 940.308C829.669 916.711 868.065 883.114 898.462 848.117C963.156 773.825 1004.85 683.233 1018.85 586.643C1022.95 558.546 1023.45 550.246 1023.45 512.15C1023.45 474.054 1022.95 465.755 1018.85 437.657C991.053 245.576 854.367 84.1918 668.985 24.3977C636.288 13.7987 601.491 6.49941 562.495 2.09984C552.896 1.09994 486.802 4.285e-05 478.503 0.799965V0.799965ZM687.883 310.17C692.682 312.57 696.582 317.169 697.982 321.969C698.782 324.568 698.982 380.163 698.782 505.451L698.482 685.233L666.785 636.638L634.988 588.043V457.355C634.988 372.864 635.388 325.368 635.988 323.068C637.588 317.469 641.087 313.069 645.887 310.47C649.987 308.37 651.486 308.17 667.185 308.17C681.983 308.17 684.583 308.37 687.883 310.17V310.17Z" fill="white"/>
<path d="M784.273 945.208C780.774 947.407 779.674 948.907 782.774 947.207C784.973 945.908 788.573 943.208 787.973 943.108C787.673 943.108 785.973 944.108 784.273 945.208ZM777.374 949.707C775.574 951.107 775.574 951.207 777.774 950.107C778.974 949.507 779.974 948.807 779.974 948.607C779.974 947.807 779.474 948.007 777.374 949.707ZM772.375 952.707C770.575 954.107 770.575 954.207 772.775 953.107C773.974 952.507 774.974 951.807 774.974 951.607C774.974 950.807 774.474 951.007 772.375 952.707ZM767.375 955.707C765.575 957.107 765.575 957.207 767.775 956.107C768.975 955.507 769.975 954.807 769.975 954.607C769.975 953.807 769.475 954.007 767.375 955.707ZM759.776 959.706C755.976 961.706 756.176 962.506 759.976 960.606C761.676 959.706 762.976 958.806 762.976 958.606C762.976 957.906 762.876 958.006 759.776 959.706Z" fill="white"/>
</svg>
